assets/icons/qvision/all_out.svg

<svg width="24" height="24" viewBox="0 0 24 24" fill="none" xmlns="http://www.w3.org/2000/svg">
<g clip-path="url(#clip0_147_3866)">
<path d="M16.21 4.15997L20.21 8.15997V4.15997H16.21ZM20.21 16.16L16.21 20.16H20.21V16.16ZM8.20999 20.16L4.20999 16.16V20.16H8.20999ZM4.20999 8.15997L8.20999 4.15997H4.20999V8.15997ZM17.16 7.20997C14.43 4.47997 9.98999 4.47997 7.25999 7.20997C4.52999 9.93997 4.52999 14.38 7.25999 17.11C9.98999 19.84 14.43 19.84 17.16 17.11C19.89 14.38 19.89 9.94997 17.16 7.20997ZM16.06 16.01C13.93 18.14 10.49 18.14 8.35999 16.01C6.22999 13.88 6.22999 10.44 8.35999 8.30997C10.49 6.17997 13.93 6.17997 16.06 8.30997C18.19 10.44 18.19 13.88 16.06 16.01Z" fill="#323232"/>
</g>
<defs>
<clipPath id="clip0_147_3866">
<rect width="24" height="24" fill="white"/>
</clipPath>
</defs>
</svg>

<svg xmlns="http://www.w3.org/2000/svg" height="24" viewBox="0 0 24 24" width="24"><path d="M16.21 4.16l4 4v-4zm4 12l-4 4h4zm-12 4l-4-4v4zm-4-12l4-4h-4zm12.95-.95c-2.73-2.73-7.17-2.73-9.9 0s-2.73 7.17 0 9.9 7.17 2.73 9.9 0 2.73-7.16 0-9.9zm-1.1 8.8c-2.13 2.13-5.57 2.13-7.7 0s-2.13-5.57 0-7.7 5.57-2.13 7.7 0 2.13 5.57 0 7.7z"/><path d="M.21.16h24v24h-24z" fill="none"/></svg>
